X: 1
T: Yo Johann
C: Lar Duggan 2008
N: tune for The Collaboration by Paula Kelley and Val Medve
R: reel
Z: 2014 John Chambers &lt;jc:trillian.mit.edu&gt;
M: 2/4
L: 1/16
K: D
|:\
"D"D2dc d2A2 | F2A2 FGA2 | "Em"G2ed e2AB | "Em/d"cdcB "A/c#"A2E2 |
"Dm"D2FE F2D2 | "F#m"A2D2 "G"dcB2 | "A"A2E2 E2E2 | E4- E2DE :|
"Bm"D2dc d2FG | ABAB A2D2 | "G"D2dc d2FG | ABAB A2D2 |
"A"e^de2 "A/c#"A2g2 | "D"fef2 "Bm"d2a2 | "Em"gfg2 "A"e2b2 | "F#m"a^ga2 "Bm"f2d2 |
"Em"gfed "A"e2c2 | "D/f#"d2A2 F2A2 | "G"gfed "A"edcd | "D"d4- d2CD ||
|:\
"A"E2CD C2E2 | "A7/g"A2E2 A2E2 | "Dm/f"=F2GA "Bb"D2F2 | "C"c2G2 "F"A2=F2 | "Bm"_BAG=F "C"G2E2 |
"F"=F2=C2 A,2C2 |1 "Bb"BAG=F "C"GFEF | "F"=F4- F2EF :|2 "Bb"_BAG+F "Gm"GFEF | "A"E4- E2DC |]

